package/converter/svg/regular/microchip-ai.svg

<svg xmlns="http://www.w3.org/2000/svg" viewBox="0 0 512 512"><!-- Font Awesome Pro 6.0.0-alpha2 by @fontawesome - https://fontawesome.com License - https://fontawesome.com/license (Commercial License) --><path d="M226.328 183.984C219.953 169.422 196.047 169.422 189.672 183.984L133.672 311.984C129.25 322.109 133.859 333.891 143.984 338.328C154.125 342.734 165.891 338.125 170.328 328.016L175.617 315.922C175.752 315.924 175.865 316 176 316H240C240.135 316 240.248 315.924 240.383 315.922L245.672 328.016C248.969 335.531 256.312 340 264.016 340C266.688 340 269.406 339.469 272.016 338.328C282.141 333.891 286.75 322.109 282.328 311.984L226.328 183.984ZM193.08 276L208 241.891L222.92 276H193.08ZM336 172C324.953 172 316 180.953 316 192V320C316 331.047 324.953 340 336 340S356 331.047 356 320V192C356 180.953 347.047 172 336 172ZM488 280C501.25 280 512 269.25 512 256S501.25 232 488 232H448V184H488C501.25 184 512 173.25 512 160S501.25 136 488 136H448V128C448 92.654 419.348 64 384 64H376V24C376 10.75 365.25 0 352 0S328 10.75 328 24V64H280V24C280 10.75 269.25 0 256 0S232 10.75 232 24V64H184V24C184 10.75 173.25 0 160 0S136 10.75 136 24V64H128C92.654 64 64 92.654 64 128V136H24C10.75 136 0 146.75 0 160S10.75 184 24 184H64V232H24C10.75 232 0 242.75 0 256S10.75 280 24 280H64V328H24C10.75 328 0 338.75 0 352S10.75 376 24 376H64V384C64 419.346 92.654 448 128 448H136V488C136 501.25 146.75 512 160 512S184 501.25 184 488V448H232V488C232 501.25 242.75 512 256 512S280 501.25 280 488V448H328V488C328 501.25 338.75 512 352 512S376 501.25 376 488V448H384C419.348 448 448 419.346 448 384V376H488C501.25 376 512 365.25 512 352S501.25 328 488 328H448V280H488ZM400 384C400 392.822 392.822 400 384 400H128C119.178 400 112 392.822 112 384V128C112 119.178 119.178 112 128 112H384C392.822 112 400 119.178 400 128V384Z"/></svg>

<svg xmlns="http://www.w3.org/2000/svg" viewBox="0 0 512 512"><!--! Font Awesome Pro 6.6.0 by @fontawesome - https://fontawesome.com License - https://fontawesome.com/license (Commercial License) Copyright 2024 Fonticons, Inc. --><path d="M184 24c0-13.3-10.7-24-24-24s-24 10.7-24 24l0 40-8 0c-35.3 0-64 28.7-64 64l0 8-40 0c-13.3 0-24 10.7-24 24s10.7 24 24 24l40 0 0 48-40 0c-13.3 0-24 10.7-24 24s10.7 24 24 24l40 0 0 48-40 0c-13.3 0-24 10.7-24 24s10.7 24 24 24l40 0 0 8c0 35.3 28.7 64 64 64l8 0 0 40c0 13.3 10.7 24 24 24s24-10.7 24-24l0-40 48 0 0 40c0 13.3 10.7 24 24 24s24-10.7 24-24l0-40 48 0 0 40c0 13.3 10.7 24 24 24s24-10.7 24-24l0-40 8 0c35.3 0 64-28.7 64-64l0-8 40 0c13.3 0 24-10.7 24-24s-10.7-24-24-24l-40 0 0-48 40 0c13.3 0 24-10.7 24-24s-10.7-24-24-24l-40 0 0-48 40 0c13.3 0 24-10.7 24-24s-10.7-24-24-24l-40 0 0-8c0-35.3-28.7-64-64-64l-8 0 0-40c0-13.3-10.7-24-24-24s-24 10.7-24 24l0 40-48 0 0-40c0-13.3-10.7-24-24-24s-24 10.7-24 24l0 40-48 0 0-40zM112 128c0-8.8 7.2-16 16-16l256 0c8.8 0 16 7.2 16 16l0 256c0 8.8-7.2 16-16 16l-256 0c-8.8 0-16-7.2-16-16l0-256zm224 44c-11 0-20 9-20 20l0 128c0 11 9 20 20 20s20-9 20-20l0-128c0-11-9-20-20-20zM234.3 184c-3.2-7.3-10.4-12-18.3-12s-15.1 4.7-18.3 12l-56 128c-4.4 10.1 .2 21.9 10.3 26.3s21.9-.2 26.3-10.3l5.3-12 64.8 0 5.3 12c4.4 10.1 16.2 14.7 26.3 10.3s14.7-16.2 10.3-26.3l-56-128zM216 241.9L230.9 276l-29.8 0L216 241.9z"/></svg>
